assets/features/home/subscription/free-trial-confetti.svg

<svg preserveAspectRatio="none" width="100%" height="100%" overflow="visible" style="display: block;" viewBox="0 0 258 138" fill="none" xmlns="http://www.w3.org/2000/svg">
<g id="Frame" clip-path="url(#clip0_0_4)">
<path id="Vector" d="M64.7723 24.7949L71.2698 22.1846C72.7806 31.5247 74.1364 37.7334 75.3339 40.8043C79.6997 51.9984 85.3952 51.9606 86.7591 57.7888C87.6671 61.6759 87.7482 66.8787 87.0023 73.3973L78.641 74.3235C80.3276 71.369 80.7112 67.3563 79.7915 62.2853C78.4102 54.6813 72.3438 53.6373 68.2739 43.1502C65.5607 36.1549 64.3938 30.038 64.7723 24.7949Z" fill="#FF4A4A"/>
<path id="Vector_2" d="M142.36 71.1175L144.965 71.3126C143.293 75.019 142.29 77.5426 141.958 78.8876C140.743 83.7829 142.514 84.7793 141.601 87.1712C140.99 88.7608 139.825 90.6912 138.102 92.9561L135.306 91.8086C136.504 91.0225 137.542 89.6135 138.417 87.584C139.732 84.5407 138.097 83.0762 139.239 78.4941C140.003 75.4365 141.043 72.98 142.36 71.1175Z" fill="#FFD600"/>
<path id="Vector_3" d="M159.377 4.06834L164.292 4.28976C156.058 19.4559 151.252 28.4182 149.884 31.179C144.888 41.2319 134.955 42.8762 131.899 47.8014C129.863 51.0837 126.932 55.6774 123.105 61.5825L119.496 58.2041C123.057 54.1803 126.347 49.9248 129.345 45.4655C133.529 39.176 142.55 38.117 147.241 28.7003C151.315 20.5032 155.36 12.2915 159.375 4.06559L159.377 4.06834Z" fill="#00B4FF"/>
<path id="Vector_4" d="M238.438 28.7554L235.182 22.3899C230.605 27.6843 227.348 30.8748 225.407 31.9576C215.258 37.6297 209.112 36.8977 206.8 38.0391C195.955 43.3832 199.651 56.0168 194.702 59.4209C190.087 62.6332 185.519 65.9132 181 69.2598L185.971 72.9209C190.521 69.6607 195.02 66.3298 199.467 62.9294C205.615 58.2164 201.65 46.7412 211.797 41.7189C216.325 39.4803 221.708 40.9437 228.125 37.8323C230.242 36.8045 233.681 33.7794 238.438 28.7554Z" fill="#A92DFF"/>
<path id="Vector_5" d="M205.895 88.7868C191.92 93.2261 187.634 89.4719 182.411 92.0935C178.931 93.841 173.673 96.4162 166.643 99.8144L165.55 95.7343C170.184 94.0234 174.748 92.1277 179.231 90.0519C186.142 86.8598 195.936 90.8226 204.93 85.1852C204.962 85.3018 207.007 88.4331 205.895 88.7868Z" fill="#39FF27"/>
<path id="Vector_6" d="M39.4261 46.718C50.4593 56.3753 49.4668 61.9863 54.4136 65.097C57.7107 67.1702 62.6362 70.3353 69.1832 74.5903L66.2582 77.6375C62.3951 74.5585 58.4103 71.6353 54.3135 68.8749C48.0044 64.615 46.3242 54.1846 36.8442 49.4078C36.9278 49.3208 38.5479 45.9498 39.4261 46.718Z" fill="#39FF27"/>
<path id="Vector_7" d="M248.439 128.053L246.994 133.843C236.745 124.15 230.009 119.664 226.775 120.385C214.999 123.018 209.68 111.21 203.685 111.678C199.684 111.996 194.063 112.328 186.811 112.675L188.802 104.695C192.635 106.165 197.141 106.824 202.317 106.679C210.081 106.456 217.203 116.979 228.235 114.534C235.591 112.903 242.326 117.408 248.439 128.053Z" fill="#FFD600"/>
<path id="Vector_8" d="M161.883 79.5573C161.384 80.2355 161.174 81.0844 161.301 81.9171C161.427 82.7499 161.879 83.4983 162.557 83.9978C163.235 84.4972 164.084 84.7068 164.917 84.5804C165.75 84.454 166.498 84.002 166.998 83.3238C167.497 82.6455 167.707 81.7967 167.58 80.9639C167.454 80.1312 167.002 79.3827 166.324 78.8832C165.646 78.3838 164.797 78.1742 163.964 78.3006C163.131 78.427 162.383 78.879 161.883 79.5573Z" fill="#00B4FF"/>
<path id="Vector_9" d="M132.883 13.5573C132.384 14.2355 132.174 15.0844 132.301 15.9171C132.427 16.7499 132.879 17.4983 133.557 17.9978C134.235 18.4973 135.084 18.7068 135.917 18.5804C136.75 18.454 137.498 18.002 137.998 17.3238C138.497 16.6455 138.707 15.7967 138.58 14.9639C138.454 14.1312 138.002 13.3827 137.324 12.8832C136.646 12.3838 135.797 12.1742 134.964 12.3006C134.131 12.427 133.383 12.879 132.883 13.5573Z" fill="#FFD600"/>
<path id="Vector_10" d="M157.883 47.5573C157.384 48.2355 157.174 49.0844 157.301 49.9171C157.427 50.7499 157.879 51.4983 158.557 51.9978C159.235 52.4973 160.084 52.7068 160.917 52.5804C161.75 52.454 162.498 52.002 162.998 51.3238C163.497 50.6455 163.707 49.7967 163.58 48.9639C163.454 48.1312 163.002 47.3827 162.324 46.8832C161.646 46.3838 160.797 46.1742 159.964 46.3006C159.131 46.427 158.383 46.879 157.883 47.5573Z" fill="#FF4A4A"/>
<path id="Vector_11" d="M212.883 64.5573C212.384 65.2355 212.174 66.0844 212.301 66.9171C212.427 67.7499 212.879 68.4983 213.557 68.9978C214.235 69.4972 215.084 69.7068 215.917 69.5804C216.75 69.454 217.498 69.002 217.998 68.3238C218.497 67.6455 218.707 66.7967 218.58 65.9639C218.454 65.1312 218.002 64.3827 217.324 63.8832C216.646 63.3838 215.797 63.1742 214.964 63.3006C214.131 63.427 213.383 63.879 212.883 64.5573Z" fill="#FF4A4A"/>
<path id="Vector_12" d="M103.883 59.5573C103.384 60.2355 103.174 61.0844 103.301 61.9171C103.427 62.7499 103.879 63.4983 104.557 63.9978C105.235 64.4973 106.084 64.7068 106.917 64.5804C107.75 64.454 108.498 64.002 108.998 63.3238C109.497 62.6455 109.707 61.7967 109.58 60.9639C109.454 60.1312 109.002 59.3827 108.324 58.8832C107.646 58.3838 106.797 58.1742 105.964 58.3006C105.131 58.427 104.383 58.879 103.883 59.5573Z" fill="#39FF27"/>
<path id="Vector_13" d="M188.883 126.557C188.384 127.235 188.174 128.084 188.301 128.917C188.427 129.75 188.879 130.498 189.557 130.998C190.235 131.497 191.084 131.707 191.917 131.58C192.75 131.454 193.498 131.002 193.998 130.324C194.497 129.646 194.707 128.797 194.58 127.964C194.454 127.131 194.002 126.383 193.324 125.883C192.646 125.384 191.797 125.174 190.964 125.301C190.131 125.427 189.383 125.879 188.883 126.557Z" fill="#A92DFF"/>
<path id="Vector_14" d="M25.8832 61.5573C25.3838 62.2355 25.1742 63.0844 25.3006 63.9171C25.427 64.7499 25.879 65.4983 26.5573 65.9978C27.2355 66.4972 28.0844 66.7068 28.9171 66.5804C29.7499 66.454 30.4983 66.002 30.9978 65.3238C31.4972 64.6455 31.7068 63.7967 31.5804 62.9639C31.454 62.1312 31.002 61.3827 30.3238 60.8832C29.6455 60.3838 28.7967 60.1742 27.9639 60.3006C27.1312 60.427 26.3827 60.879 25.8832 61.5573Z" fill="#A92DFF"/>
<path id="Vector_15" d="M171.761 142.391L171.762 142.391C169.937 141.113 168.226 139.119 166.626 136.409C164.219 132.344 165.434 130.172 163.287 127.713C161.853 126.076 160.436 125.125 159.031 124.864L161.482 122.503C163.817 124.008 165.51 125.419 166.552 126.741C168.121 128.72 166.646 130.485 169.209 134.831C169.909 136.023 171.603 138.099 174.29 141.06L171.762 142.391C171.763 142.391 171.763 142.392 171.764 142.392L171.761 142.391Z" fill="#00B4FF"/>
</g>
<defs>
<clipPath id="clip0_0_4">
<rect width="258" height="138" fill="white"/>
</clipPath>
</defs>
</svg>

<svg xmlns="http://www.w3.org/2000/svg" fill="none" overflow="visible" preserveAspectRatio="none" style="display:block" viewBox="0 0 258 138"><g clip-path="url(#a)"><path fill="#ff4a4a" d="m64.772 24.795 6.498-2.61q2.266 14.011 4.064 18.62C79.7 51.997 85.395 51.96 86.759 57.788q1.363 5.83.243 15.608l-8.361.926q2.53-4.431 1.15-12.038c-1.38-7.604-7.447-8.648-11.517-19.135q-4.07-10.492-3.502-18.355"/><path fill="#ffd600" d="m142.36 71.118 2.605.195q-2.508 5.558-3.007 7.575c-1.215 4.895.556 5.891-.357 8.283q-.916 2.386-3.499 5.785l-2.796-1.147q1.798-1.18 3.111-4.225c1.315-3.043-.32-4.508.822-9.09.764-3.058 1.804-5.514 3.121-7.376"/><path fill="#00b4ff" d="m159.377 4.068 4.915.222c-8.234 15.166-13.04 24.128-14.408 26.889-4.996 10.053-14.929 11.697-17.985 16.622q-3.054 4.924-8.794 13.782l-3.609-3.379a122 122 0 0 0 9.849-12.739c4.184-6.289 13.205-7.348 17.896-16.765a3829 3829 0 0 0 12.134-24.634z"/><path fill="#a92dff" d="m238.438 28.755-3.256-6.365q-6.864 7.942-9.775 9.568c-10.149 5.672-16.295 4.94-18.607 6.081-10.845 5.344-7.149 17.978-12.098 21.382A575 575 0 0 0 181 69.26l4.971 3.66a540 540 0 0 0 13.496-9.99c6.148-4.714 2.183-16.189 12.33-21.211 4.528-2.239 9.911-.775 16.328-3.887q3.177-1.541 10.313-9.077"/><path fill="#39ff27" d="M205.895 88.787c-13.975 4.44-18.261.685-23.484 3.307q-5.221 2.622-15.768 7.72l-1.093-4.08a185 185 0 0 0 13.681-5.682c6.911-3.192 16.705.77 25.699-4.867.032.117 2.077 3.248.965 3.602M39.426 46.718c11.033 9.657 10.04 15.268 14.988 18.379q4.947 3.11 14.77 9.493l-2.926 3.047a185 185 0 0 0-11.944-8.762c-6.31-4.26-7.99-14.69-17.47-19.467.084-.087 1.704-3.458 2.582-2.69"/><path fill="#ffd600" d="m248.439 128.053-1.445 5.79c-10.249-9.693-16.985-14.179-20.219-13.458-11.776 2.633-17.095-9.175-23.09-8.707-4.001.318-9.622.65-16.874.997l1.991-7.98q5.75 2.203 13.515 1.984c7.764-.223 14.886 10.3 25.918 7.855q11.034-2.448 20.204 13.519"/><path fill="#00b4ff" d="M161.883 79.557a3.175 3.175 0 1 0 5.113 3.765 3.175 3.175 0 0 0-5.113-3.765"/><path fill="#ffd600" d="M132.883 13.557a3.175 3.175 0 1 0 5.113 3.765 3.175 3.175 0 0 0-5.113-3.765"/><path fill="#ff4a4a" d="M157.883 47.557a3.175 3.175 0 1 0 5.113 3.765 3.175 3.175 0 0 0-5.113-3.765m55 17a3.175 3.175 0 1 0 5.113 3.765 3.175 3.175 0 0 0-5.113-3.765"/><path fill="#39ff27" d="M103.883 59.557a3.175 3.175 0 1 0 5.113 3.765 3.175 3.175 0 0 0-5.113-3.765"/><path fill="#a92dff" d="M188.883 126.557a3.175 3.175 0 0 0 3.034 5.023 3.176 3.176 0 1 0-3.034-5.023m-163-65a3.176 3.176 0 1 0 5.115 3.767 3.176 3.176 0 0 0-5.115-3.767"/><path fill="#00b4ff" d="M171.761 142.391h.001q-2.737-1.917-5.136-5.982c-2.407-4.065-1.192-6.237-3.339-8.696q-2.15-2.457-4.256-2.849l2.451-2.361c2.335 1.505 4.028 2.916 5.07 4.238 1.569 1.979.094 3.744 2.657 8.09q1.05 1.788 5.081 6.229l-2.528 1.331.002.001z"/></g><defs><clipPath id="a"><path fill="#fff" d="M0 0h258v138H0z"/></clipPath></defs></svg>
